X:1
T:Title
%%score { ( 1 2 3 ) | ( 4 5 ) }
L:1/8
Q:1/4=81
M:6/8
K:F
V:1 treble nm="Grand Piano"
V:2 treble 
V:3 treble 
V:4 bass 
V:5 bass 
V:1
 .c3 .A3 | .E3 c3 | c2 G [Ac]>B[CG] | [FA]6 | c2 A A2 F | E2 G c3 | .[EB]3 .[Ec]3 | F6[K:bass] | %8
w: Thoro~Harris *||||||||
 .G3 .G3 | .d3 A3 | .=B3 .G3 | [Ec]6 | .c3 .A3 | z G,G c3 | .[EB]3 z3 | [CF]6 | z3 z2 [FB] | %17
w: |||||||||
 A3 z3 | =B>AG dAB | c-[Gc-][Fc-] [Ec-][Dc]E | c2 A A2 F | E2 G c3 | .[EB]3 .[Ec]3 | %23
w: ||||||
[M:7/4] F6[K:bass] z2 z2 z4 |] %24
w: |
V:2
 z z/ B/A z z/ G/F | z CG z CC | x6 | x6 | x6 | x6 | z z/ A/G z A,E | z2[K:bass] C, .F,,3 | %8
 z z/ E/C z z/ E/C | z A,c z A,[^CG] | F2- [FG] F2- [Fd] | x6 | z z/ B/A z z/ G/F | .E3 z3 | %14
 z z/ A/G [Ec]2 [CE] | x6 | .[DFB]3 [FBd]2 D/D/ | z z/ =B,/C .c3 | x6 | .[CE]3 z3 | x6 | x6 | %22
 z z/ A/G z A,E |[M:7/4] z2[K:bass] C, .F,,3 z2 z2 z4 |] %24
V:3
 z .C2 z .C2 | x6 | x6 | x6 | x6 | x6 | z .^F,2 z3 | x2[K:bass] x4 | z .B,2 z .B,2 | x6 | x6 | x6 | %12
 z .A,2 z .G,2 | x6 | z .^F,2 z3 | x6 | x6 | x6 | x6 | x6 | x6 | x6 | z .^F,2 z3 | %23
[M:7/4] x2[K:bass] x12 |] %24
V:4
 F,A,[A,C] F,A,[A,C] | G,B,[B,C] G,B,B, | .C,>[K:treble]BG,[K:bass] .C,>GE, | F,A,C DCA, | %4
 .F,>[K:treble]BC[K:bass] .F,>[K:treble]GC | G,B,C[K:bass] G,B,C | %6
 C,->[C,-_E][C,G,=E] C,2- [C,B,C] | [A,C]6 | C,[E,G,][E,G,B,] C,[E,G,][E,G,B,] | %9
 C,F,[F,A,] C,F,E, | .D,>AD, .=B,,>[K:treble]=B[K:bass]B,, | C,E,G, CB,G, | .F,2 C .D,2 =B, | %13
 .C,2 C C,E,G, | .G,>_E[G,=E] G,A,B, | A,6 | z z/ ^C/D B,,2 D, | .[F,CF]3 .[F,A,C]3 | %18
 [G,DF]>[G,CF][G,=B,F] [G,B,F][G,CF][G,DF] | z ED CB,G, | %20
 .F,>[K:treble]BC[K:bass] .F,>[K:treble]GC | G,B,C[K:bass] G,B,C | %22
 C,->[C,-_E][C,G,=E] C,2- [C,B,C] |[M:7/4] [A,C]6 z2 z2 z4 |] %24
V:5
 x6 | x6 | z .E,2[K:treble][K:bass] z .D,2 | x6 | z .A,2[K:treble][K:bass] z .A,2[K:treble] | %5
 x3[K:bass] x3 | .G,3 .G,3 | x6 | x6 | x6 | z .G,2 z .G,,2[K:treble][K:bass] | x6 | x6 | x6 | %14
 C,3 C,3 | z2 C, .F,,3 | B,,3 z3 | x6 | x6 | C,6 | z .A,2[K:treble][K:bass] z .A,2[K:treble] | %21
 x3[K:bass] x3 | .G,3 .G,3 |[M:7/4] x14 |] %24

